X:38
T:Matalan Torpan Ballaadi  (Ballad of the crofter's hut)
M:2/4
L:1/16
Q:1/4=80
S:arr. Eira Mattsson (Washington DC Finlandia Foundation) ~1976
R:jenkka
K:Em
"Em" E2EE EFGG | "B7" F3E ^D2B,B, | "Em" E2EE EFG2 | "Am" F4 "B7" F4 | !
|: "Am" A2AA A2c2 | "Em" B2BA B2GG | "B7" F2FE ^D2B,2 | "Em" E4 E4 :||

